X:17
T:Congratulation Reel
Z:Gwen, 2019-01-28
C:François Champs
R:Reel
M:2/2
Q:1/2=90
K:G
|: d2de dBB/B/B | GABG AGEG | DGGF GABc | dBeB dGAB |
   d2de dBB/B/B | GABG AGEG | DGGF GABc |1 dBAc BGBc :|2 dBAc BGBd |
|: gage d2ge | d2cA BGED | gage dged | cdef g2gf |
   gage d2ge | d2cA BGED | cdef gedB |1 cBAc BGBd :|2 cBAc BGBc |

